X:6
T:Minuet in G Major (BWV Anh. 114)
C:Bach, J.S.
M:3/4
L:1/8
Q:1/4=100
K:G
|:d|GGAB cd|e2 dB G2|c2 Bc de|d4 c2|
AABC de|f2 ed c2|BABc de|d4 d:|
|:d|g2 fg ag|f2 ef de|cBcd ec|B4 B2|
eBcd ef|g2 fe d2|cBAB cB|A4 A:|

